!!!!SEGMENT: pl-kozmzk--mzk-m-346--020_walczynski-franciszek--cantantibus-organis-andantino.krn
!!!cenid: 18xx:2815
!!!COM: Walczyński, Franciszek
!!!COM-rismid: pe30021989
!!!CDT: ~1852-1937
!!!CNT: Polish
!!!GTL: Cantantibus organis op. 10
!!!OTL: 20. Andantino
!!!PDT: 1898
!!!AGN: Secular
!!!SMS-siglum: PL-KOZmzk
!!!SMS-shelfmark: mzk/m/346
!!!SMS-shelfwork: 020 G
!!!SMS-variant:
!!!SMS-altvar:
!!!NIFC-rismid: 1001109111
!!!URL-scan: https://repozytorium.nifc.pl/islandora/object/pl-kozmzk%3A7453/datastream/PDF/view
!!!ONB-nifc:
!!!AIN: 1 organ
!!!key:
**kern	**kern	**dynam
*part1	*part1	*part1
*staff2	*staff1	*
*Iorgan	*Iorgan	*
*I"Organo	*I"Organo	*
*clefF4	*clefG2	*
*k[f#c#]	*k[f#c#]	*
*e:	*e:	*
*M2/4	*M2/4	*
=1	=1	=1
*^	*^	*
(4B/	2r	(4b/	2r	f
16A/LL	.	16a/LL	.	.
16G/	.	16g/	.	.
16F#/	.	16f#/	.	.
16E/JJ	.	16e/JJ	.	.
=2	=2	=2	=2	=2
4F#/	2rGG	4f#/	2r	.
4BB/)	.	4B/)	.	.
=3	=3	=3	=3	=3
!LO:TX:b:i:t=Ped.	!	!	!	!LO:DY:a
(4G/	(4GG\	(4e/	([2B\	p
4Fn/	4GG#X\	[4d/	.	.
=4	=4	=4	=4	=4
2E/)	2AA\)	4d/]	4B\]	.
.	.	4c#/)	4A\)	.
=5	=5	=5	=5	=5
(4e/	2r	(4ee/	2r	.
16d/LL	.	16dd/LL	.	.
16c#/	.	16cc#/	.	.
16B/	.	16b/	.	.
16A/JJ	.	16a/JJ	.	.
=6	=6	=6	=6	=6
4B/	2rBB	4b/	2rB	.
4E/)	.	4e/)	.	.
=7	=7	=7	=7	=7
!LO:TX:b:i:t=Ped.	!	!	!	!
(4B/	(4G#X\	(4dd/	(4.e\	p
8A/L	8A\L	8cc#/L	.	.
8d/J	8D\J	8b/J	8f#\	.
=8	=8	=8	=8	=8
2c#/)	2F#\)	4b/	2e\)	.
.	.	4a#X/)	.	.
=9	=9	=9	=9	=9
!!LO:LB:g=original
(4f#/	2r	(4ff#/	2r	ff
16e/LL	.	16ee/LL	.	.
16d/	.	16dd/	.	.
16c#/	.	16cc#/	.	.
16B/JJ	.	16b/JJ	.	.
=10	=10	=10	=10	=10
4c#/	2r	4cc#/	2r	.
4F#/)	.	4f#/)	.	.
=11	=11	=11	=11	=11
!LO:TX:b:i:t=Ped.	!	!	!	!
4d/	[2BB\	(4b/	([4f#\	p
16c#/LL	.	16a/LL	16f#\LL]	.
16B/	.	16g/	16e\	.
16A/	.	16f#/	16d#X\	.
16G/JJ	.	16e/JJ	16e\JJ	.
=12	=12	=12	=12	=12
4F#/	2BB\]	4b/	2d#X\)	>
4B/	.	4f#/)	.	.
=13	=13	=13	=13	=13
(4cn/	[2BB\	4a/	4f#\	] pp
16B/LL	.	16g/LL	16e\LL	.
16A/	.	16f#/	16d#X\	.
16B/	.	16g/	16e\	.
16G/JJ	.	16e/JJ	16c#\JJ	.
=14	=14	=14	=14	=14
8F#/L	2BB\_	(2f#/	[>2d#X\	.
8B/	.	.	.	.
8F#/	.	.	.	.
8G/J)	.	.	.	.
=15	=15	=15	=15	=15
(4A/	2BB\_	4f#/	4d#X\]	.
16G/LL	.	16e/LL	[4B\	.
16F#/	.	16d#X/	.	.
!LO:TX:b:i:t=rit.	!	!	!	!
16G/	.	16e/	.	.
16E/JJ	.	16c#/JJ	.	.
=16	=16	=16	=16	=16
2F#/)	2BB;\]	2d#X;/)	2B\]	.
*v	*v	*	*	*
*	*v	*v	*
==	==	==
*-	*-	*-
!!!system-decoration: {(s1,s2)}
!!!RDF**kern: > = above
!!!RDF**kern: < = below
!!!ENC: Kamil Watkowski
!!!END: 2021-08-09
